VARIANT
CUT[Es geht nix ueber die Gemuetlichkeit, eicha, eicha]
REG[Europa, Mitteleuropa, Deutschland, Ober - Franken, Toepen]
KEY[V0002B 16  F 2/4]
MEL[-5_  1_1_1121  -7_-6_-6_4_  -7__0_3_  1__0_
    -5-5  1_1_1121  -7_-6_-6_4_  -7__0_3_  1__0_ //] >>
FCT[Geselligkeits - Lied, Gemuetlichkeit]
